svg/calendar_lock_outline.svg

<svg xmlns="http://www.w3.org/2000/svg" viewBox="0 0 24 24"><path d="M13 20H5V10h14v1.05c.74.08 1.42.33 2 .73V6c0-1.11-.89-2-2-2h-1V2h-2v2H8V2H6v2H5a2 2 0 0 0-2 2v14a2 2 0 0 0 2 2h8.18c-.11-.31-.18-.65-.18-1zM5 6h14v2H5zm16 10v-.5a2.5 2.5 0 0 0-5 0v.5c-.55 0-1 .45-1 1v4c0 .55.45 1 1 1h5c.55 0 1-.45 1-1v-4c0-.55-.45-1-1-1m-1 0h-3v-.5c0-.83.67-1.5 1.5-1.5s1.5.67 1.5 1.5z"/></svg>

<?xml version="1.0" encoding="UTF-8"?><!DOCTYPE svg PUBLIC "-//W3C//DTD SVG 1.1//EN" "http://www.w3.org/Graphics/SVG/1.1/DTD/svg11.dtd"><svg xmlns="http://www.w3.org/2000/svg" xmlns:xlink="http://www.w3.org/1999/xlink" version="1.1" id="mdi-calendar-lock-outline" width="24" height="24" viewBox="0 0 24 24"><path d="M13 20H5V10H19V11.05C19.74 11.13 20.42 11.38 21 11.78V6C21 4.89 20.11 4 19 4H18V2H16V4H8V2H6V4H5C3.89 4 3 4.9 3 6V20C3 21.11 3.9 22 5 22H13.18C13.07 21.69 13 21.35 13 21V20M5 6H19V8H5V6M21 16V15.5C21 14.12 19.88 13 18.5 13S16 14.12 16 15.5V16C15.45 16 15 16.45 15 17V21C15 21.55 15.45 22 16 22H21C21.55 22 22 21.55 22 21V17C22 16.45 21.55 16 21 16M20 16H17V15.5C17 14.67 17.67 14 18.5 14S20 14.67 20 15.5V16Z" /></svg>
